X: 1304
T: An Islay
R: jig
M: 6/8
K: Dmajor
e/d/|c2 A A2 a|ecA A2 d|c2 A A2 a|c>de e2 d|
c2 A A2 a|c>de A<Ac|B<Bg gfg|d3 e2:|
|:e|c>de a3|c>de ede|g3 f2 d|e3 g3|
[1c>de a3|c>de edc|B<Bg gfg|d3 e2:|
[2agf gfe|fed edc|B<Bg gfg|d3 d3]||

